svgs/sharp-light/tilde.svg

<svg xmlns="http://www.w3.org/2000/svg" viewBox="0 0 448 512"><!--! Font Awesome Pro 6.6.0 by @fontawesome - https://fontawesome.com License - https://fontawesome.com/license (Commercial License) Copyright 2024 Fonticons, Inc. --><path d="M0 128l16 0 120 0 7.8 0 4.8 6.1L319.8 352l96.2 0 0-160 0-16 32 0 0 16 0 176 0 16-16 0-120 0-7.8 0-4.8-6.1L128.2 160 32 160l0 160 0 16L0 336l0-16L0 144l0-16z"/></svg>

<svg xmlns="http://www.w3.org/2000/svg" viewBox="0 0 448 512"><!--! Font Awesome Pro 6.5.2 by @fontawesome - https://fontawesome.com License - https://fontawesome.com/license (Commercial License) Copyright 2024 Fonticons, Inc. --><path d="M0 128H16 136h7.8l4.8 6.1L319.8 352H416V192 176h32v16V368v16H432 312h-7.8l-4.8-6.1L128.2 160H32V320v16H0V320 144 128z"/></svg>
